X: 100397
T: MR. HAMILTON'S, OF WISHAW, REEL
R: reel
B: K\"ohler's Violin Repository, v.3, 1885 p.260 #2
F: http://www.archive.org/details/klersviolinrepos03rugg
Z: 2012 John Chambers <jc:trillian.mit.edu>
M: C|
L: 1/8
K: Bb
uf | dB B/B/B TB2FB | cded cCCe | dB B/B/B TB2FB | ABcA BB,B, :|
ud | B/B/B (fd) (bd)(fd) | B/B/B (fd) eccd | B/B/B (fd) (bd)(fd) | ABcA BB,B, ||
 d | B/B/B (fd) (bd)(fd) | B/B/B (fd) eccf | gefd ecdc | BGFE DB,"_Fine."B, "^D.C."|]

%%sep 2 1 500

